svgs/sharp-thin/brackets-curly.svg

<svg xmlns="http://www.w3.org/2000/svg" viewBox="0 0 576 512"><!--! Font Awesome Pro 6.6.0 by @fontawesome - https://fontawesome.com License - https://fontawesome.com/license (Commercial License) Copyright 2024 Fonticons, Inc. --><path d="M96 32l8 0 120 0 8 0 0 16-8 0L112 48l0 144 0 3.3-2.3 2.3L51.3 256l58.3 58.3 2.3 2.3 0 3.3 0 144 112 0 8 0 0 16-8 0-120 0-8 0 0-8 0-148.7L34.3 261.7 32 259.3l0-6.6 2.3-2.3L96 188.7 96 40l0-8zm384 0l0 8 0 148.7 61.7 61.7 2.3 2.3 0 6.6-2.3 2.3L480 323.3 480 472l0 8-8 0-120 0-8 0 0-16 8 0 112 0 0-144 0-3.3 2.3-2.3L524.7 256l-58.3-58.3-2.3-2.3 0-3.3 0-144L352 48l-8 0 0-16 8 0 120 0 8 0z"/></svg>

<svg xmlns="http://www.w3.org/2000/svg" viewBox="0 0 576 512"><!--! Font Awesome Pro 6.5.2 by @fontawesome - https://fontawesome.com License - https://fontawesome.com/license (Commercial License) Copyright 2024 Fonticons, Inc. --><path d="M96 32h8H224h8V48h-8H112V192v3.3l-2.3 2.3L51.3 256l58.3 58.3 2.3 2.3V320 464H224h8v16h-8H104 96v-8V323.3L34.3 261.7 32 259.3v-6.6l2.3-2.3L96 188.7V40 32zm384 0v8V188.7l61.7 61.7 2.3 2.3v6.6l-2.3 2.3L480 323.3V472v8h-8H352h-8V464h8H464V320v-3.3l2.3-2.3L524.7 256l-58.3-58.3-2.3-2.3V192 48H352h-8V32h8H472h8z"/></svg>
